actions/symbolic/edit-undo-symbolic.svg

<?xml version="1.0" encoding="UTF-8" standalone="no"?>
<svg
   xmlns:dc="http://purl.org/dc/elements/1.1/"
   xmlns:cc="http://creativecommons.org/ns#"
   xmlns:rdf="http://www.w3.org/1999/02/22-rdf-syntax-ns#"
   xmlns:svg="http://www.w3.org/2000/svg"
   xmlns="http://www.w3.org/2000/svg"
   id="svg6"
   version="1.1"
   width="16"
   height="16">
  <metadata
     id="metadata12">
    <rdf:RDF>
      <cc:Work
         rdf:about="">
        <dc:format>image/svg+xml</dc:format>
        <dc:type
           rdf:resource="http://purl.org/dc/dcmitype/StillImage" />
        <dc:title></dc:title>
      </cc:Work>
    </rdf:RDF>
  </metadata>
  <defs
     id="defs10" />
  <path
     id="path873-5"
     style="opacity:1;fill:#555761;stroke:none;stroke-width:4;stroke-linecap:round;stroke-linejoin:round;stop-color:#000000"
     d="m 7.2271845,2.5 c 0.4312184,0 0.7773437,0.3343185 0.7773437,0.75 v 2.7460938 h 0.953125 c 3.3606288,0 5.0974158,2.1697257 5.0410158,4.8398442 v 1.667968 c 0,0.323676 -0.176243,0.501953 -0.509766,0.501953 -0.279268,0 -0.488281,-0.224595 -0.488281,-0.501953 C 12.963564,10.668199 11.266999,9 9.250622,9 H 8.0045282 v 2.75 c 0,0.41568 -0.3461253,0.75 -0.7773437,0.75 -0.2324095,0 -0.4396467,-0.09725 -0.5820313,-0.251953 L 2.213513,8.0234375 C 2.081903,7.8890578 2.000622,7.7091578 2.000622,7.5097656 c 0,-0.1993924 0.081279,-0.3792918 0.212891,-0.5136718 L 6.6451532,2.7519531 C 6.7875378,2.5972426 6.994775,2.5 7.2271845,2.5 Z" />
</svg>

<svg
        xmlns='http://www.w3.org/2000/svg'
        xmlns:svg='http://www.w3.org/2000/svg'
        id='svg6'
        width='16'
        height='16'>
  <path
          id='path873-5'
          opacity='1'
          fill='url(#gpa:foreground) #555761'
          fill-opacity='1'
          fill-rule='nonzero'
          stroke='none'
          stroke-width='4'
          stroke-linecap='round'
          stroke-linejoin='round'
          d='M 7.22718 2.5 C 7.6584 2.5, 8.00453 2.83432, 8.00453 3.25 L 8.00453 5.99609 L 8.95765 5.99609 C 12.3183 5.99609, 14.0551 8.16582, 13.9987 10.8359 L 13.9987 12.5039 C 13.9987 12.8276, 13.8224 13.0059, 13.4889 13.0059 C 13.2096 13.0059, 13.0006 12.7813, 13.0006 12.5039 C 12.9636 10.6682, 11.267 9, 9.25062 9 L 8.00453 9 L 8.00453 11.75 C 8.00453 12.1657, 7.6584 12.5, 7.22718 12.5 C 6.99477 12.5, 6.78754 12.4028, 6.64515 12.248 L 2.21351 8.02344 C 2.0819 7.88906, 2.00062 7.70916, 2.00062 7.50977 C 2.00062 7.31037, 2.0819 7.13047, 2.21351 6.99609 L 6.64515 2.75195 C 6.78754 2.59724, 6.99477 2.5, 7.22718 2.5 Z'
          class="foreground">
  </path>
</svg>
